X: 153
T:Quick March. JaW.153
M:2/4
L:1/16
Q:100
S:James Winder Ms, Lancashire, 1835-41
R:March
O:England
A:Wyresdale,Lancashire
N:or Hornpipe..cgp
H:1/16
Z:vmp.Chris Partington, Aug 2004
K:C
c2c2 cBcd|e2e2 edef|g2eg f2df|efgd cBAG|!
c2c2 cBcd|e2e2 edef|gc'ba gfed|c2c2c4:|!
|:g2g2 gecG|d2d2 dBAG|g2g2 g2c'b|agfe d4|!
c2c2 cBcd|e2e2 edef|gc'ba gfed|c2c2c4:|]
